static/assets/images/icons/botnet.svg

<svg width="256" height="256" viewBox="0 0 256 256" fill="none" xmlns="http://www.w3.org/2000/svg">
<path fill-rule="evenodd" clip-rule="evenodd" d="M220.367 111.559C230.965 120.8 233.404 131.113 233.519 145.262C233.636 159.712 231.201 170.368 220.367 179.794C214.126 185.224 206.535 187.12 200.658 188.587C199.952 188.763 199.271 188.933 198.62 189.103V206.747C198.62 209.667 196.956 212.344 194.271 213.419C178.047 219.913 154.288 224.012 127.812 224.012C101.336 224.012 77.5765 219.913 61.3531 213.419C58.6675 212.344 57.0034 209.667 57.0034 206.747V189.103C56.293 188.918 55.5435 188.733 54.767 188.541C48.9068 187.093 41.3706 185.23 35.2564 179.794C24.6184 170.335 22.922 159.585 23.0322 145.262C23.14 131.244 24.8581 120.833 35.2564 111.559C42.1725 105.391 50.8497 102.137 58.2678 102.137C58.2678 72.3852 86.8256 48.0281 122.979 46.021V34.0117C117.68 32.0263 113.903 26.8697 113.903 20.8213C113.903 13.0548 120.13 6.75879 127.812 6.75879C135.494 6.75879 141.721 13.0548 141.721 20.8213C141.721 26.8697 137.944 32.0263 132.645 34.0117V46.021C168.798 48.0282 197.356 72.3853 197.356 102.137C204.774 102.137 213.384 105.469 220.367 111.559ZM50.3061 129.687C48.2692 134.464 47.1407 139.73 47.1407 145.262C47.1407 161.375 56.7131 175.227 70.4217 181.323H101.749C115.458 175.227 125.03 161.375 125.03 145.262C125.03 139.73 123.902 134.464 121.865 129.687H50.3061ZM135.613 129.687C133.577 134.464 132.448 139.73 132.448 145.262C132.448 161.375 142.02 175.227 155.729 181.323H187.056C200.765 175.227 210.337 161.375 210.337 145.262C210.337 139.73 209.209 134.464 207.172 129.687H135.613Z" fill="url(#paint0_radial_7881_783)"/>
<path d="M147.144 135.802H166.433C167.359 135.802 168.11 136.561 168.11 137.498V157.006C168.11 157.943 167.359 158.703 166.433 158.703H147.144C146.218 158.703 145.467 157.943 145.467 157.006V137.498C145.467 136.561 146.218 135.802 147.144 135.802Z" fill="url(#paint1_radial_7881_783)"/>
<path d="M62.4428 135.802H80.8926C81.819 135.802 82.5699 136.561 82.5699 137.498V157.006C82.5699 157.943 81.819 158.703 80.8926 158.703H62.4428C61.5165 158.703 60.7656 157.943 60.7656 157.006V137.498C60.7656 136.561 61.5165 135.802 62.4428 135.802Z" fill="url(#paint2_radial_7881_783)"/>
<defs>
<radialGradient id="paint0_radial_7881_783" cx="0" cy="0" r="1" gradientUnits="userSpaceOnUse" gradientTransform="translate(90.9565 61.5863) rotate(55.3441) scale(185.085 149.269)">
<stop stop-color="#6D95FE"/>
<stop offset="0.677083" stop-color="#477BFF"/>
<stop offset="1" stop-color="#1543D8"/>
</radialGradient>
<radialGradient id="paint1_radial_7881_783" cx="0" cy="0" r="1" gradientUnits="userSpaceOnUse" gradientTransform="translate(90.9565 61.5863) rotate(55.3441) scale(185.085 149.269)">
<stop stop-color="#6D95FE"/>
<stop offset="0.677083" stop-color="#477BFF"/>
<stop offset="1" stop-color="#1543D8"/>
</radialGradient>
<radialGradient id="paint2_radial_7881_783" cx="0" cy="0" r="1" gradientUnits="userSpaceOnUse" gradientTransform="translate(90.9565 61.5863) rotate(55.3441) scale(185.085 149.269)">
<stop stop-color="#6D95FE"/>
<stop offset="0.677083" stop-color="#477BFF"/>
<stop offset="1" stop-color="#1543D8"/>
</radialGradient>
</defs>
</svg>

<svg xmlns="http://www.w3.org/2000/svg" fill="none" viewBox="0 0 256 256"><path fill="url(#paint0_radial_7881_783)" fill-rule="evenodd" d="M220.367 111.559c10.598 9.241 13.037 19.554 13.152 33.703.117 14.45-2.318 25.106-13.152 34.532-6.241 5.43-13.832 7.326-19.709 8.793q-1.06.263-2.038.516v17.644c0 2.92-1.664 5.597-4.349 6.672-16.224 6.494-39.983 10.593-66.459 10.593s-50.235-4.099-66.459-10.593c-2.686-1.075-4.35-3.752-4.35-6.672v-17.644c-.71-.185-1.46-.37-2.236-.562-5.86-1.448-13.396-3.311-19.51-8.747-10.639-9.459-12.335-20.209-12.225-34.532.108-14.018 1.826-24.429 12.224-33.703 6.916-6.168 15.594-9.422 23.012-9.422 0-29.752 28.558-54.109 64.711-56.116v-12.01c-5.299-1.985-9.076-7.141-9.076-13.19 0-7.766 6.227-14.062 13.909-14.062s13.909 6.296 13.909 14.062c0 6.049-3.777 11.205-9.076 13.19v12.01c36.153 2.007 64.711 26.364 64.711 56.116 7.418 0 16.028 3.332 23.011 9.422m-170.06 18.128a39.6 39.6 0 0 0-3.166 15.575c0 16.113 9.572 29.965 23.28 36.061h31.328c13.709-6.096 23.281-19.948 23.281-36.061a39.6 39.6 0 0 0-3.165-15.575zm85.306 0a39.6 39.6 0 0 0-3.165 15.575c0 16.113 9.572 29.965 23.281 36.061h31.327c13.709-6.096 23.281-19.948 23.281-36.061a39.6 39.6 0 0 0-3.165-15.575z" clip-rule="evenodd"/><path fill="url(#paint1_radial_7881_783)" d="M147.144 135.802h19.289c.926 0 1.677.759 1.677 1.696v19.508c0 .937-.751 1.697-1.677 1.697h-19.289c-.926 0-1.677-.76-1.677-1.697v-19.508c0-.937.751-1.696 1.677-1.696"/><path fill="url(#paint2_radial_7881_783)" d="M62.443 135.802h18.45c.926 0 1.677.759 1.677 1.696v19.508c0 .937-.751 1.697-1.677 1.697h-18.45c-.926 0-1.677-.76-1.677-1.697v-19.508c0-.937.75-1.696 1.677-1.696"/><defs><radialGradient id="paint0_radial_7881_783" cx="0" cy="0" r="1" gradientTransform="matrix(105.24821 152.2474 -122.78584 84.88152 90.957 61.587)" gradientUnits="userSpaceOnUse"><stop stop-color="#6D95FE"/><stop offset=".677" stop-color="#477BFF"/><stop offset="1" stop-color="#1543D8"/></radialGradient><radialGradient id="paint1_radial_7881_783" cx="0" cy="0" r="1" gradientTransform="matrix(105.24821 152.2474 -122.78584 84.88152 90.957 61.587)" gradientUnits="userSpaceOnUse"><stop stop-color="#6D95FE"/><stop offset=".677" stop-color="#477BFF"/><stop offset="1" stop-color="#1543D8"/></radialGradient><radialGradient id="paint2_radial_7881_783" cx="0" cy="0" r="1" gradientTransform="matrix(105.24821 152.2474 -122.78584 84.88152 90.957 61.587)" gradientUnits="userSpaceOnUse"><stop stop-color="#6D95FE"/><stop offset=".677" stop-color="#477BFF"/><stop offset="1" stop-color="#1543D8"/></radialGradient></defs></svg>
